X:355
T:Eyn Mol
Z:Jack Campin, http://www.campin.me.uk/
F:Jack Campin's Nine-Note Tunebook
% last edit 07-03-2013
S:Klezmatics CD
G:Yiddish drinking song
M:C|
L:1/4
Q:1/2=72
K:GMin
BG DG|B   G    DG|:cc B/A/G/A/|B2 B2:|
dd d2|c/B/A/B/ c2| BG A  ^F   |GA Bc |
dd d2|c/B/A/B/ G2| BG A  ^F   |G2 G2|]

